!!!SOCIAL_FUNCTION:	songs received from animals
!!!PDT:	1918

Specific Region: Dakotas, Minnesota, Montana, Nebraska
!!!REG: Dakotas and Montana
!!!LING_GROUP: Siouan
!!!LANG: Tone
!!!OTL@ENG: Song of a Wolf
!!!ONM: No. 53
**kern
*Imale
*clefF4
*k[f#c#g#d#]
*M2/4
*MM100
8.B
16c#
=1
8B
16B
16B
8B
8B
=2||
*M3/4
8B
8G#
4G#
8B
16c#
16c#
=3||
*M2/4
4B
8B
8B
=4
8B
8G#
(12G#
12F#
12E)
=5
4E
8.G#
16B
=6
4G#
8F#
8F#
=7||
*M3/4
8F#
8E
12E
12C#
12BB
4BB
=8||
*M2/4
4.F#
8E
=9
8C#
8F#
8E
8C#
=10||
*M3/4
8BB
8BB
4.BB
8BB
=11
2.BB
==
*-
!!!CNT: Native American -- Sioux
!!!MRD: 1911/07//-1914///
!!!OCL: Frances Densmore
!!!YOR1: Teton Sioux Music, Bulletin 61,
!!!YOR2: Bureau of American Ethnology, Smithsonian Institution
!!!PPR: Government Printing Office
!!!PPP: Washington, D.C.
!!!PDT: 1918///
!!!ENC: Craig Stuart Sapp
!!!END: 2002/03/25/
!!!EEV: 2002/03/31/
!!!AGN: Song of Personal Dreams/Song Received from Animals
!!!MPN@@SIO: Itung'-kasang-mato'
!!!MPN@ENG: Weasel Bear
!!!TXO: Teton Sioux
!!!MLC: Standing Rock Reservation, South Dakota, United States of America
!!!ARL: 45.9/-100.7#
!!!catalog: Catalogue No. 650
!!!PPG: 190
!!!EFL: 53/245
!!!VTS: 2230613096
